X: 9389
T: Dandy Brush
R: reel
M: 4/4
K: Amajor
EFAB c/c/c cA|BABc BAFA|EFAB cAAf|eAcA B2 ce|
fAdf eAce|dcBA GABG|EFGA Bcdf|ecdB ABAF:|
eaa/a/a aece|dcBA GABG|EA A/A/A GABG|ABcA Bcde|
fAdf eAce|dcBA GABG|EFGA Bcdf|ecdB ABcd|
eaa/a/a aece|dcBA GABG|ABcA BcdB|ce e/e/e efge|
aece fdBd|ecAc dBGF|EFGA Bcdf|ecdB A4:|

